svg/message_fast.svg

<svg xmlns="http://www.w3.org/2000/svg" viewBox="0 0 24 24"><path d="M3 7c-.6 0-1 .4-1 1s.4 1 1 1h2V7zm-1 4c-.6 0-1 .4-1 1s.4 1 1 1h3v-2zm-1 4c-.6 0-1 .4-1 1s.4 1 1 1h4v-2zM20 5H9c-1.1 0-2 .9-2 2v14l4-4h9c1.1 0 2-.9 2-2V7c0-1.1-.9-2-2-2"/></svg>

<svg xmlns="http://www.w3.org/2000/svg" id="mdi-message-fast" viewBox="0 0 24 24"><path d="M3 7C2.4 7 2 7.4 2 8S2.4 9 3 9H5V7H3M2 11C1.4 11 1 11.4 1 12S1.4 13 2 13H5V11H2M1 15C.4 15 0 15.4 0 16C0 16.6 .4 17 1 17H5V15H1M20 5H9C7.9 5 7 5.9 7 7V21L11 17H20C21.1 17 22 16.1 22 15V7C22 5.9 21.1 5 20 5Z" /></svg>
